icons/outline/file-type-txt.svg

<!--
tags: [text, plain, note, ascii, file, document, writing, data, info, txt]
category: Document
version: "2.25"
unicode: "fb19"
-->
<svg
  xmlns="http://www.w3.org/2000/svg"
  width="24"
  height="24"
  viewBox="0 0 24 24"
  fill="none"
  stroke="currentColor"
  stroke-width="2"
  stroke-linecap="round"
  stroke-linejoin="round"
>
  <path d="M14 3v4a1 1 0 0 0 1 1h4m-5 -5v4a1 1 0 0 0 1 1h4m-2.5 7h3m-14.5 -3v-7a2 2 0 0 1 2 -2h7l5 5v4m-14.5 3h3m-1.5 0v6m12 -6v6m-8 -6l4 6m-4 0l4 -6" />
</svg>

<!--
tags: [text, plain, note, ascii, file, document, writing, data, info, txt]
category: Document
version: "2.25"
unicode: "fb19"
-->
<svg
  xmlns="http://www.w3.org/2000/svg"
  width="24"
  height="24"
  viewBox="0 0 24 24"
  fill="none"
  stroke="currentColor"
  stroke-width="2"
  stroke-linecap="round"
  stroke-linejoin="round"
>
    <path d="M14 3v4a1 1 0 0 0 1 1h4M14 3v4a1 1 0 0 0 1 1h4M16.5 15h3M5 12v-7a2 2 0 0 1 2 -2h7l5 5v4M4.5 15h3M6 15v6M18 15v6M10 15l4 6M10 21l4 -6" />
</svg>
